svgs/sharp-regular/note-medical.svg

<svg xmlns="http://www.w3.org/2000/svg" viewBox="0 0 448 512"><!--! Font Awesome Pro 6.6.0 by @fontawesome - https://fontawesome.com License - https://fontawesome.com/license (Commercial License) Copyright 2024 Fonticons, Inc. --><path d="M400 80l0 240-112 0 0 112L48 432 48 80l352 0zM48 480l240 0 32 0L448 352l0-32 0-240 0-48-48 0L48 32 0 32 0 80 0 432l0 48 48 0zM192 128l0 64-64 0 0 64 64 0 0 64 64 0 0-64 64 0 0-64-64 0 0-64-64 0z"/></svg>

<svg xmlns="http://www.w3.org/2000/svg" viewBox="0 0 448 512"><!--! Font Awesome Pro 6.4.2 by @fontawesome - https://fontawesome.com License - https://fontawesome.com/license (Commercial License) Copyright 2023 Fonticons, Inc. --><path d="M400 80V320H288V432H48V80H400zM48 480H288h32L448 352V320 80 32H400 48 0V80 432v48H48zM192 128v64H128v64h64v64h64V256h64V192H256V128H192z"/></svg>
